src/client/web-contents/img/common/badge/badge_status_09.svg

<svg height="32" viewBox="0 0 104 32" width="104" xmlns="http://www.w3.org/2000/svg"><g fill="none" fill-rule="evenodd"><rect fill="#119ed7" height="32" rx="4" width="104"/><path d="m24.1 21.44c0 2.04-2.22 3.36-6.18 3.36s-6.22-1.32-6.22-3.36c0-2.06 2.26-3.38 6.22-3.38s6.18 1.32 6.18 3.38zm2-4.92h-16.1v-1.62h6.26v-3.18h2.06v3.18h7.78zm-2.08-8.82c.06 2.1-.14 4.54-.54 6.26l-1.98-.28c.34-1.34.5-2.96.46-4.34h-10.06v-1.64zm-6.1 12.02c-2.52 0-4.1.6-4.1 1.72 0 1.14 1.58 1.72 4.1 1.72 2.5 0 4.08-.58 4.08-1.72 0-1.12-1.58-1.72-4.08-1.72zm23.06 5.1h-2.04v-17.82h2.04zm-3.82-5.66-1.22 1.54c-1.52-.98-3.42-3.18-4.08-5.14-.6 2.12-2.38 4.36-4.34 5.54l-1.26-1.5c2.76-1.8 4.52-4.74 4.52-8.14v-2.92h2.12v2.8c0 3.42 1.66 6.18 4.26 7.82zm19.48 5.44h-11.98v-6.54h11.98zm-.06-16.84c0 2.38-.18 4.68-.56 6.42h2.68v1.66h-16.1v-1.66h11.46c.28-1.22.46-3.38.48-4.78h-9.88v-1.64zm-1.98 15.2v-3.3h-7.9v3.3zm19.44-6.08.18 1.54c-3.38.46-7.38.62-11.22.66l-.3-1.68c1.32 0 3.1 0 4.68-.04v-.96c-1.84-.24-3.14-1.1-3.14-2.4 0-1.56 1.78-2.5 4.14-2.5 2.38 0 4.16.94 4.16 2.5 0 1.3-1.3 2.16-3.12 2.4v.86c1.64-.08 3.58-.22 4.62-.38zm3.1-9.88v5.48h2.56v1.72h-2.56v4.7h-2.04v-11.9zm-11.92 12.82h11.92v5.06h-2.04v-3.4h-9.88zm8.2-8.76h-10.04v-1.56h10.04zm-7.48-2.34v-1.56h4.98v1.56zm4.6 5.28c0-.66-.84-1-2.16-1-1.3 0-2.16.34-2.16 1 0 .64.88 1 2.16 1 1.32 0 2.16-.38 2.16-1zm23.94 10.82h-1.98v-9.02h-1.8v8.16h-1.94v-16.6h1.94v6.72h1.8v-7.08h1.98zm-6.96-6.5.26 1.64c-1.48.34-3.78.5-5.94.5h-1.8v-11.3h6.72v1.66c-1.54 0-3.12-.02-4.64-.02v7.96c2.22 0 4.06-.14 5.4-.44z" fill="#fff"/></g></svg>

<?xml version="1.0" encoding="UTF-8" standalone="no"?>
<svg width="104px" height="32px" viewBox="0 0 104 32" version="1.1" xmlns="http://www.w3.org/2000/svg" xmlns:xlink="http://www.w3.org/1999/xlink">
    <!-- Generator: Sketch 50.2 (55047) - http://www.bohemiancoding.com/sketch -->
    <title>graphic_badge_status_09</title>
    <desc>Created with Sketch.</desc>
    <defs></defs>
    <g id="Icon_Badge_Graphic" stroke="none" stroke-width="1" fill="none" fill-rule="evenodd">
        <g id="##Element/Badge/Status09">
            <rect id="Rectangle-2" fill="#119ED7" x="0" y="0" width="104" height="32" rx="4"></rect>
            <path d="M24.1,21.44 C24.1,23.48 21.88,24.8 17.92,24.8 C13.96,24.8 11.7,23.48 11.7,21.44 C11.7,19.38 13.96,18.06 17.92,18.06 C21.88,18.06 24.1,19.38 24.1,21.44 Z M26.1,16.52 L10,16.52 L10,14.9 L16.26,14.9 L16.26,11.72 L18.32,11.72 L18.32,14.9 L26.1,14.9 L26.1,16.52 Z M24.02,7.7 C24.08,9.8 23.88,12.24 23.48,13.96 L21.5,13.68 C21.84,12.34 22,10.72 21.96,9.34 L11.9,9.34 L11.9,7.7 L24.02,7.7 Z M17.92,19.72 C15.4,19.72 13.82,20.32 13.82,21.44 C13.82,22.58 15.4,23.16 17.92,23.16 C20.42,23.16 22,22.58 22,21.44 C22,20.32 20.42,19.72 17.92,19.72 Z M40.98,24.82 L38.94,24.82 L38.94,7 L40.98,7 L40.98,24.82 Z M37.16,19.16 L35.94,20.7 C34.42,19.72 32.52,17.52 31.86,15.56 C31.26,17.68 29.48,19.92 27.52,21.1 L26.26,19.6 C29.02,17.8 30.78,14.86 30.78,11.46 L30.78,8.54 L32.9,8.54 L32.9,11.34 C32.9,14.76 34.56,17.52 37.16,19.16 Z M56.64,24.6 L44.66,24.6 L44.66,18.06 L56.64,18.06 L56.64,24.6 Z M56.58,7.76 C56.58,10.14 56.4,12.44 56.02,14.18 L58.7,14.18 L58.7,15.84 L42.6,15.84 L42.6,14.18 L54.06,14.18 C54.34,12.96 54.52,10.8 54.54,9.4 L44.66,9.4 L44.66,7.76 L56.58,7.76 Z M54.6,22.96 L54.6,19.66 L46.7,19.66 L46.7,22.96 L54.6,22.96 Z M74.04,16.88 L74.22,18.42 C70.84,18.88 66.84,19.04 63,19.08 L62.7,17.4 C64.02,17.4 65.8,17.4 67.38,17.36 L67.38,16.4 C65.54,16.16 64.24,15.3 64.24,14 C64.24,12.44 66.02,11.5 68.38,11.5 C70.76,11.5 72.54,12.44 72.54,14 C72.54,15.3 71.24,16.16 69.42,16.4 L69.42,17.26 C71.06,17.18 73,17.04 74.04,16.88 Z M77.14,7 L77.14,12.48 L79.7,12.48 L79.7,14.2 L77.14,14.2 L77.14,18.9 L75.1,18.9 L75.1,7 L77.14,7 Z M65.22,19.82 L77.14,19.82 L77.14,24.88 L75.1,24.88 L75.1,21.48 L65.22,21.48 L65.22,19.82 Z M73.42,11.06 L63.38,11.06 L63.38,9.5 L73.42,9.5 L73.42,11.06 Z M65.94,8.72 L65.94,7.16 L70.92,7.16 L70.92,8.72 L65.94,8.72 Z M70.54,14 C70.54,13.34 69.7,13 68.38,13 C67.08,13 66.22,13.34 66.22,14 C66.22,14.64 67.1,15 68.38,15 C69.7,15 70.54,14.62 70.54,14 Z M94.48,24.82 L92.5,24.82 L92.5,15.8 L90.7,15.8 L90.7,23.96 L88.76,23.96 L88.76,7.36 L90.7,7.36 L90.7,14.08 L92.5,14.08 L92.5,7 L94.48,7 L94.48,24.82 Z M87.52,18.32 L87.78,19.96 C86.3,20.3 84,20.46 81.84,20.46 L80.04,20.46 L80.04,9.16 L86.76,9.16 L86.76,10.82 C85.22,10.82 83.64,10.8 82.12,10.8 L82.12,18.76 C84.34,18.76 86.18,18.62 87.52,18.32 Z" id="공시금-확대" fill="#FFFFFF"></path>
        </g>
    </g>
</svg>
